X: 2
M:2/4
L:1/16
K:Glyd
"^Segno"v(dB)~B2 ABdB|GBdf g2fg|ecdB ABcd|dfg^g a2=ge|\
dB~B2 ABdB|GBdf g2gb|bgaf gfed|efg^g a2=ge::\
dggg g2af|gbaf gfed|eaaa caaa|Baca aged|\


